packages/core/src/svgs/tokens/branded/TAMA.svg

<svg width="24" height="24" viewBox="0 0 24 24" fill="none" xmlns="http://www.w3.org/2000/svg">
<path d="M21.444 12C21.444 14.5048 20.449 16.9071 18.6779 18.6782C16.9067 20.4494 14.5044 21.4444 11.9996 21.4444C9.49477 21.4444 7.09258 20.4494 5.32139 18.6782C3.55021 16.9071 2.55518 14.5048 2.55518 12C2.55518 9.49514 3.55021 7.09296 5.32139 5.32178C7.09258 3.55061 9.49477 2.55557 11.9996 2.55557C14.5044 2.55557 16.9067 3.55061 18.6779 5.32178C20.449 7.09296 21.444 9.49514 21.444 12Z" fill="#FFD643"/>
<path d="M9.57791 14.2222H9.22241V15.0833L10.4335 15.8889H13.578L14.778 15.0833V14.2222H14.4001L13.8724 15.0833H12.5558V14.7778H11.4446V15.0833H10.0946L9.57791 14.2222Z" fill="#A31B3F"/>
<path d="M10.8892 16.1222V15.3334H13.1114V16.1222H12.5558V16.4444H11.4446V16.1222H10.8892Z" fill="#FF9B37"/>
<path d="M9.77793 17H9.22241V17.4777L10.1113 18.1111H14.2835C14.2835 18.1111 16.6557 16.0889 17.7669 15.1667V13.0444L16.6114 11.1945V10.0667L17.2779 9.28335V6.44446H16.1501L14.2224 8.87779H13.6113V9.0889L14.2224 9.47219L16.3113 6.86668H16.9891V9.0889L15.8502 10.0667L15.6224 10.939L16.739 13.2388V15.1723L13.9669 17.5555H9.77793V17Z" fill="#A31B3F"/>
<path d="M6.69995 14.8556L9.18884 17.5555L9.62213 17.3611L7.17773 15.0612L7.01106 14.2722L7.49995 12.8611L10.0999 11.7945L16.7111 6.87778V6.44446H15.9999L14.1833 8.66667H13.3833V8.67778H10.6944V8.66667H10.0999L7.96105 6.44446H7.49995L7.01661 6.87778V9.22223L8.14995 10.7222L6.69995 13.0111V14.8556Z" fill="#FFFF74"/>
<path d="M7.00024 13.1834V14.7778H7.5558V13.7389L8.00023 12.8278H9.22246V13.4612L9.55579 13.8778H10.3114L11.0391 12.8278H13.2558L14.0502 13.8778H14.778L15.3281 13.4612V12.8334H16.2169L16.9947 13.7444V14.7778H17.5502V13.1834L16.3446 11.6444V11.2445H15.9557V10.5555H16.4447V10L17.0003 9.14445V6.77779H16.3502L14.1836 8.66667C13.9447 8.53333 13.1892 8.27778 12.1113 8.27778C11.0391 8.27778 10.278 8.53333 10.0392 8.66667L8.00579 6.77779H7.2558V9.14445L8.11135 10.0056V10.5611H8.38912V11.2445H8.00023V11.6444L7.00024 13.1834Z" fill="#FF9B37"/>
<path d="M10.3334 10.3333H10.889V9.77773H10.3334V10.3333ZM13.1113 9.77773V10.3333H13.6667V9.77773H13.1113ZM15.9167 7.32224L15.0334 8.20001V9.22223H15.5613V9.77773H15.9167L16.6502 8.92779V7.31667H15.9167V7.32224ZM8.29455 7.35556L9.22233 8.2389V9.22223H8.66677V9.77773H8.28899L7.55566 8.96668V7.35556H8.29455Z" fill="#FFD643"/>
<path d="M10.4443 10.8889H9.77759V12H10.3332V12.5556H10.8888V11.4L10.4443 10.8889ZM13.5554 10.8889H14.2221V12H13.6665V12.5556H13.111V11.4L13.5554 10.8889Z" fill="#A31B3F"/>
<path fill-rule="evenodd" clip-rule="evenodd" d="M20.3334 12C20.3334 14.2102 19.4554 16.3297 17.8926 17.8925C16.3298 19.4554 14.2102 20.3333 12.0001 20.3333C9.79 20.3333 7.67032 19.4554 6.10752 17.8925C4.54472 16.3297 3.66675 14.2102 3.66675 12C3.66675 9.78992 4.54472 7.67026 6.10752 6.10745C7.67032 4.54465 9.79 3.66668 12.0001 3.66668C14.2102 3.66668 16.3298 4.54465 17.8926 6.10745C19.4554 7.67026 20.3334 9.78992 20.3334 12ZM19.7778 12C19.7778 14.0628 18.9584 16.0412 17.4998 17.4998C16.0411 18.9584 14.0629 19.7778 12.0001 19.7778C9.93726 19.7778 7.95898 18.9584 6.50036 17.4998C5.04174 16.0412 4.2223 14.0628 4.2223 12C4.2223 9.93718 5.04174 7.95891 6.50036 6.50029C7.95898 5.04167 9.93726 4.22223 12.0001 4.22223C14.0629 4.22223 16.0411 5.04167 17.4998 6.50029C18.9584 7.95891 19.7778 9.93718 19.7778 12Z" fill="#FF9B37"/>
<path fill-rule="evenodd" clip-rule="evenodd" d="M12 21.7222C14.5784 21.7222 17.0514 20.698 18.8746 18.8746C20.6979 17.0514 21.7222 14.5786 21.7222 12C21.7222 9.42151 20.6979 6.94863 18.8746 5.12537C17.0514 3.3021 14.5784 2.27779 12 2.27779C9.42152 2.27779 6.94862 3.3021 5.12536 5.12537C3.30208 6.94863 2.27778 9.42151 2.27778 12C2.27778 14.5786 3.30208 17.0514 5.12536 18.8746C6.94862 20.698 9.42152 21.7222 12 21.7222ZM21.7222 12C21.7222 14.5786 20.6979 17.0514 18.8746 18.8746C17.0514 20.698 14.5784 21.7222 12 21.7222C9.42152 21.7222 6.94862 20.698 5.12536 18.8746C3.30208 17.0514 2.27778 14.5786 2.27778 12C2.27778 9.42151 3.30208 6.94863 5.12536 5.12537C6.94862 3.3021 9.42152 2.27779 12 2.27779C14.5784 2.27779 17.0514 3.3021 18.8746 5.12537C20.6979 6.94863 21.7222 9.42151 21.7222 12ZM22 12C22 13.3133 21.7414 14.6136 21.2388 15.8269C20.7362 17.0401 19.9997 18.1425 19.071 19.0711C18.1425 19.9997 17.0401 20.7362 15.8268 21.2388C14.6136 21.7414 13.3133 22 12 22C10.6868 22 9.38643 21.7414 8.17317 21.2388C6.95992 20.7362 5.85752 19.9997 4.92893 19.0711C4.00035 18.1425 3.26376 17.0401 2.76121 15.8269C2.25866 14.6136 2 13.3133 2 12C2 9.34784 3.05358 6.80432 4.92893 4.92895C6.80429 3.05359 9.34784 2.00001 12 2.00001C14.6522 2.00001 17.1957 3.05359 19.071 4.92895C20.9465 6.80432 22 9.34784 22 12ZM21.4444 12C21.4444 14.5048 20.4494 16.9071 18.6782 18.6782C16.9071 20.4494 14.5048 21.4444 12 21.4444C9.49515 21.4444 7.09295 20.4494 5.32177 18.6782C3.55059 16.9071 2.55555 14.5048 2.55555 12C2.55555 9.49514 3.55059 7.09296 5.32177 5.32178C7.09295 3.55061 9.49515 2.55557 12 2.55557C14.5048 2.55557 16.9071 3.55061 18.6782 5.32178C20.4494 7.09296 21.4444 9.49514 21.4444 12Z" fill="url(#paint0_linear_364_9684)"/>
<path d="M10.8892 12.8222V13.4L11.2224 13.6666H12.778L13.1114 13.4V12.8222L12.778 12.5556H11.2224L10.8892 12.8222Z" fill="#A31B3F"/>
<defs>
<linearGradient id="paint0_linear_364_9684" x1="2.82223" y1="15.8278" x2="20.9722" y2="17.8389" gradientUnits="userSpaceOnUse">
<stop offset="0.47" stop-color="#FFFF74"/>
<stop offset="0.48" stop-color="#A31B3F"/>
</linearGradient>
</defs>
</svg>

<svg xmlns="http://www.w3.org/2000/svg" width="24" height="24" fill="none" viewBox="0 0 24 24">
    <path fill="#FFD643" d="M21.444 12a9.444 9.444 0 1 1-18.889 0 9.444 9.444 0 0 1 18.889 0"/>
    <path fill="#A31B3F" d="M9.578 14.222h-.356v.861l1.212.806h3.144l1.2-.806v-.86H14.4l-.528.86h-1.316v-.305h-1.111v.305h-1.35z"/>
    <path fill="#FF9B37" d="M10.89 16.122v-.789h2.221v.79h-.555v.321h-1.111v-.322z"/>
    <path fill="#A31B3F" d="M9.778 17h-.556v.478l.89.633h4.172s2.372-2.022 3.483-2.944v-2.123l-1.156-1.85v-1.127l.667-.784V6.444H16.15l-1.928 2.434h-.61v.21l.61.384 2.09-2.605h.677v2.222l-1.139.978-.228.872 1.117 2.3v1.933l-2.772 2.383h-4.19z"/>
    <path fill="#FFFF74" d="m6.7 14.856 2.489 2.7.433-.195-2.444-2.3-.167-.789.489-1.41 2.6-1.068 6.611-4.916v-.434H16l-1.817 2.223h-.8v.01h-2.689v-.01H10.1L7.96 6.444H7.5l-.483.434v2.344l1.133 1.5-1.45 2.29z"/>
    <path fill="#FF9B37" d="M7 13.183v1.595h.556v-1.04l.444-.91h1.222v.633l.334.417h.755l.728-1.05h2.217l.794 1.05h.728l.55-.417v-.628h.889l.778.911v1.034h.555v-1.595l-1.205-1.539v-.4h-.39v-.688h.49V10L17 9.144V6.778h-.65l-2.166 1.889c-.24-.134-.995-.39-2.073-.39-1.072 0-1.833.256-2.072.39l-2.033-1.89h-.75v2.367l.855.862v.555h.278v.684H8v.4z"/>
    <path fill="#FFD643" d="M10.333 10.333h.556v-.555h-.556zm2.778-.555v.555h.556v-.555zm2.806-2.456-.884.878v1.022h.528v.556h.356l.733-.85V7.317h-.733zm-7.622.034.927.883v.983h-.555v.556h-.378l-.733-.811V7.356z"/>
    <path fill="#A31B3F" d="M10.444 10.889h-.666V12h.555v.556h.556V11.4zm3.111 0h.667V12h-.556v.556h-.555V11.4z"/>
    <path fill="#FF9B37" fill-rule="evenodd" d="M20.333 12a8.333 8.333 0 1 1-16.666 0 8.333 8.333 0 0 1 16.666 0m-.555 0a7.778 7.778 0 1 1-15.556 0 7.778 7.778 0 0 1 15.556 0" clip-rule="evenodd"/>
    <path fill="url(#TAMA__a)" fill-rule="evenodd" d="M12 21.722A9.722 9.722 0 1 0 12 2.28a9.722 9.722 0 0 0 0 19.443M21.722 12A9.722 9.722 0 1 1 2.28 12a9.722 9.722 0 0 1 19.443 0M22 12a10 10 0 1 1-19.998 0A10 10 0 0 1 22 12m-.556 0a9.444 9.444 0 1 1-18.888 0 9.444 9.444 0 0 1 18.888 0" clip-rule="evenodd"/>
    <path fill="#A31B3F" d="M10.89 12.822v.578l.332.267h1.556l.333-.267v-.578l-.333-.266h-1.556z"/>
    <defs>
        <linearGradient id="TAMA__a" x1="2.822" x2="20.972" y1="15.828" y2="17.839" gradientUnits="userSpaceOnUse">
            <stop offset=".47" stop-color="#FFFF74"/>
            <stop offset=".48" stop-color="#A31B3F"/>
        </linearGradient>
    </defs>
</svg>
